src/assets/icons/ct.svg

<svg width="34" height="24" viewBox="0 0 34 24" fill="none" xmlns="http://www.w3.org/2000/svg">
<rect x="0.5" y="0.5" width="33" height="23" rx="2.5" fill="#4945FF" stroke="#4945FF"/>
<path d="M15.3281 11.0391H17.0508C17.0625 10.9512 17.0625 10.875 17.0625 10.7871C17.0625 9.11133 15.5918 7.82812 13.6523 7.82812C10.957 7.82812 9.00586 10.0488 9.00586 13.1719C9.00586 15.3223 10.3887 16.7168 12.5098 16.7168C14.5547 16.7168 16.1074 15.5625 16.4766 13.7812H14.7246C14.4492 14.6074 13.623 15.1523 12.6621 15.1523C11.5254 15.1523 10.8164 14.3496 10.8164 13.0488C10.8164 10.9688 12.0059 9.39844 13.541 9.39844C14.5781 9.39844 15.2871 10.0195 15.3281 10.957C15.3281 11.0098 15.3281 11.0273 15.3281 11.0391ZM21.0527 16.5L22.541 9.55664H25.0723L25.3828 8.04492H18.5391L18.2285 9.55664H20.7598L19.2715 16.5H21.0527Z" fill="white"/>
</svg>

<svg width="34" height="24" fill="none" xmlns="http://www.w3.org/2000/svg"><rect x=".5" y=".5" width="33" height="23" rx="2.5" fill="#4945FF" stroke="#4945FF"/><path d="M15.328 11.04h1.723c.012-.089.012-.165.012-.253 0-1.676-1.471-2.959-3.41-2.959-2.696 0-4.647 2.22-4.647 5.344 0 2.15 1.383 3.545 3.504 3.545 2.045 0 3.597-1.154 3.967-2.936h-1.752c-.276.826-1.102 1.371-2.063 1.371-1.137 0-1.846-.802-1.846-2.103 0-2.08 1.19-3.65 2.725-3.65 1.037 0 1.746.62 1.787 1.558v.082zm5.725 5.46l1.488-6.943h2.531l.31-1.512H18.54l-.31 1.512h2.53L19.272 16.5h1.782z" fill="#fff"/></svg>
